usr/share/icons/biglinux-icons-material/32/actions/mail-queue.svg

<svg version="1.1" viewBox="0 0 32 32" xmlns="http://www.w3.org/2000/svg">
 <defs>
  <style id="current-color-scheme" type="text/css">.ColorScheme-Text {
        color:#dedede;
      }</style>
 </defs>
 <path class="ColorScheme-Text" d="m24 15c-3.3137 0-6 2.6863-6 6 0 3.3137 2.6863 6 6 6s6-2.6863 6-6c0-3.3137-2.6863-6-6-6zm0 1c2.7614 0 5 2.2386 5 5s-2.2386 5-5 5c-2.7614 0-5-2.2386-5-5s2.2386-5 5-5zm-1 1v5h5v-1h-4v-4z" fill="currentColor"/>
 <path class="ColorScheme-Text" d="m6 5c-2.1263 0-3.8499 1.6437-3.9863 3.7344l-0.013672-0.011719v0.27734 0.9668 12.066 0.9668 0.2793l0.013672-0.011719c0.13738 2.0897 1.8607 3.7324 3.9863 3.7324h11v-1h-11c-1.662 0-3-1.338-3-3v-0.49609l7.5801-5.8809 3.6035 2.7949c0.75783 0.58788 1.8819 0.72794 2.8164 0.42383v-1.0391c-0.56846 0.43205-1.4494 0.43185-2.0137-0.005859l-11.986-9.2988v-0.49805c0-1.662 1.338-3 3-3h20c1.662 0 3 1.338 3 3v0.49414l-5.8086 4.5059h1.6094l4.1992-3.2578v3.2578h1v-4.0332-0.9668-0.28125l-0.013672 0.011719c-0.13833-2.0888-1.8613-3.7305-3.9863-3.7305h-20zm-3 5.7422 6.7773 5.2578-6.7773 5.2578v-10.516z" fill="currentColor"/>
</svg>

<svg xmlns="http://www.w3.org/2000/svg" viewBox="0 0 32 32"><defs><style id="current-color-scheme" type="text/css">.ColorScheme-Text{color:#dedede}</style></defs><path fill="currentColor" d="M24 15a6 6 0 1 0 0 12 6 6 0 0 0 0-12zm0 1a5 5 0 1 1 0 10 5 5 0 0 1 0-10zm-1 1v5h5v-1h-4v-4z" class="ColorScheme-Text"/><path fill="currentColor" d="M6 5a3.987 3.987 0 0 0-3.986 3.734L2 8.723V23.279l.014-.012A3.987 3.987 0 0 0 6 27h11v-1H6c-1.662 0-3-1.338-3-3v-.496l7.58-5.881 3.604 2.795c.757.587 1.882.727 2.816.423v-1.039c-.568.432-1.45.432-2.014-.006L3 9.498V9c0-1.662 1.338-3 3-3h20c1.662 0 3 1.338 3 3v.494L23.192 14h1.61L29 10.742V14h1V8.718l-.013.012A3.987 3.987 0 0 0 26 5H6zm-3 5.742L9.777 16 3 21.258V10.742z" class="ColorScheme-Text"/></svg>
